icons-rebrand/svg/application-bold.svg

<svg width="32" height="32" viewBox="0 0 32 32" fill="none" xmlns="http://www.w3.org/2000/svg">
<path d="M29.9971 10C29.9955 8.6744 29.4682 7.40356 28.5309 6.46622C27.5935 5.52888 26.3227 5.00159 24.9971 5H6.99707C5.67148 5.00159 4.40063 5.52888 3.46329 6.46622C2.52595 7.40356 1.99866 8.6744 1.99707 10V22C1.99866 23.3256 2.52595 24.5964 3.46329 25.5338C4.40063 26.4711 5.67148 26.9984 6.99707 27H9.00007C9.26529 27 9.51964 26.8946 9.70718 26.7071C9.89471 26.5196 10.0001 26.2652 10.0001 26C10.0001 25.7348 9.89471 25.4804 9.70718 25.2929C9.51964 25.1054 9.26529 25 9.00007 25H6.99707C6.20166 24.9992 5.43906 24.6829 4.87663 24.1204C4.31419 23.558 3.99786 22.7954 3.99707 22V12H27.9971V22C27.996 22.7953 27.6796 23.5578 27.1172 24.1202C26.5548 24.6825 25.7924 24.9989 24.9971 25H23.0001C22.7349 25 22.4805 25.1054 22.293 25.2929C22.1054 25.4804 22.0001 25.7348 22.0001 26C22.0001 26.2652 22.1054 26.5196 22.293 26.7071C22.4805 26.8946 22.7349 27 23.0001 27H24.9971C26.3227 26.9984 27.5935 26.4711 28.5309 25.5338C29.4682 24.5964 29.9955 23.3256 29.9971 22V10ZM3.99707 10C3.99786 9.20459 4.31419 8.44199 4.87663 7.87956C5.43906 7.31712 6.20166 7.00079 6.99707 7H24.9971C25.7925 7.00079 26.5551 7.31712 27.1175 7.87956C27.68 8.44199 27.9963 9.20459 27.9971 10H3.99707Z" fill="#0F0F0F"/>
<path d="M21.3601 22.521L12.9101 16.199C12.7534 16.0818 12.5657 16.0131 12.3704 16.0015C12.175 15.9899 11.9806 16.0359 11.8111 16.1337C11.6416 16.2315 11.5046 16.3769 11.4169 16.5519C11.3293 16.7269 11.2949 16.9237 11.3181 17.118L12.5671 27.596C12.5866 27.7604 12.6466 27.9173 12.7418 28.0528C12.8369 28.1882 12.9641 28.2979 13.1121 28.3721C13.2601 28.4462 13.4242 28.4824 13.5896 28.4776C13.7551 28.4727 13.9167 28.4268 14.0601 28.344L16.7941 26.766L18.3731 29.5C18.4382 29.6147 18.5255 29.7153 18.6297 29.7961C18.7339 29.8769 18.8531 29.9363 18.9804 29.9708C19.1076 30.0054 19.2405 30.0144 19.3713 29.9974C19.502 29.9804 19.6282 29.9377 19.7424 29.8718C19.8566 29.8058 19.9566 29.718 20.0367 29.6132C20.1168 29.5084 20.1754 29.3889 20.2092 29.2614C20.2429 29.1339 20.251 29.001 20.2332 28.8703C20.2153 28.7396 20.1718 28.6138 20.1051 28.5L18.5271 25.766L21.2601 24.188C21.4035 24.1054 21.5241 23.9884 21.6112 23.8476C21.6983 23.7069 21.7491 23.5467 21.759 23.3815C21.7689 23.2162 21.7376 23.0511 21.668 22.9009C21.5984 22.7508 21.4926 22.6202 21.3601 22.521ZM16.6621 24.533H16.6601L16.6591 24.535L14.3741 25.854L13.5801 19.198L18.9471 23.214L16.6621 24.533Z" fill="#0F0F0F"/>
</svg>

<svg width="32" height="32" viewBox="0 0 32 32" fill="none" xmlns="http://www.w3.org/2000/svg"><path d="M29.997 10a5.006 5.006 0 0 0-5-5h-18a5.006 5.006 0 0 0-5 5v12a5.006 5.006 0 0 0 5 5H9a1 1 0 1 0 0-2H6.997a3.003 3.003 0 0 1-3-3V12h24v10a3.004 3.004 0 0 1-3 3H23a1 1 0 0 0 0 2h1.997a5.006 5.006 0 0 0 5-5V10zm-26 0a3.003 3.003 0 0 1 3-3h18a3.003 3.003 0 0 1 3 3h-24z" fill="#0F0F0F"/><path d="M21.36 22.521l-8.45-6.322a1 1 0 0 0-1.592.919l1.249 10.478a1 1 0 0 0 1.493.748l2.734-1.578 1.579 2.734a1 1 0 1 0 1.732-1l-1.578-2.734 2.733-1.578a1 1 0 0 0 .1-1.667zm-4.698 2.012h-.002l-.001.002-2.285 1.319-.794-6.656 5.367 4.016-2.285 1.319z" fill="#0F0F0F"/></svg>
